X:1
T:Weep you no more
T:Weep you no more
T:Copyright © CPDL 
T:Copyright © CPDL 
T:Copyright © CPDL 
T:Copyright © CPDL 
T:Copyright © CPDL 
Z:Copyright © CPDL
%%score ( 1 2 ) { ( 3 4 5 ) ( 6 7 ) }
L:1/8
Q:1/4=70
M:3/4
K:Gmin
V:1 treble nm="P1"
V:2 treble 
V:3 treble nm="           Piano" snm=" "
V:4 treble 
V:5 treble 
V:6 bass nm=" " snm=" "
V:7 bass 
V:1
"^Editor: John Henry Fowler""^(  Revision:   3 - 30 - 2008  )""^Lento sostenuto.""^From \"English Lyrics\" -  Set 4 -  Number 4""^C.H.H.P.:  To Mrs Robert Benson""^16th Century Anonymous lyrics" z6 | %1
w: |
 z6 |"^Charles Hubert Hastings Parry" d2-"^( 1848 - 1918 )" (3dcB (3cBA | (BA) G2 z2 | %4
w: |Weep _ you no more, _ Sad|foun- * tains:|
 z !>!d c!>(!B (3(c!>)!B)A |!<(! G6!<)! | d2- (3ddd cf | f2 F2 G2 |"^poco rit." A3 d =e>A | %9
w: What need you flow _ so|fast~?|Look _ how the snow- y|moun- tains Heaven's|Sun doth gent- ly|
"^a tempo" d6 | z!p! c!<(! =B2!<)! A2 |!>(! =e>c!>)! A4 |!<(! A2 =B2!<)! c2 |!>(! d2!>)! F4 | %14
w: Waste~!|But my Sun's|heav'n- ly eyes,|View not your|weep- ing,|
 z!p! =E c2 =B2 | =B2 A4 | z2 c2 G2 | z"^rit." G !fermata!f>e A2 ||[K:G]!pp!"^a tempo" B2 d4- | %19
w: That now lies|sleep- ing|Soft- ly,|Now soft- ly lies|sleep- ing|
 d2 z2!p! z2 | d2- (3dcB (3(cB)A | G2 D4 | z!<(! d!<)!!>(! ed!>)! B>A | B6 | z d!<(! ^cB c!<)!f | %25
w: _|Sleep _ is a re- * con-|cil- ing,|A rest that peace be-|gets;|Doth not the sun rise|
!>(! f2 F2!>)! ^G2 | A3!<(! d e!<)!f | d4 z2 | A>B A2 z2 | !>!e>!>(!c!>)! A2 z2 | %30
w: smil- ing When|fair at eve he|sets~?|Rest you then,|rest, sad eyes~!|
 A2!<(! B2!<)! c2 |!<(! d2!<)!!>)!!>(! =F4 | z!p!!<(! E!<)! c2 B2 |!>(! B2!>)! A4 | %34
w: Melt not in|weep- ing,|While she lies|sleep- ing|
 z2"^rit." c2 G2 | z G !fermata!g>_e A2 |"^dim." B2 d4- | d6 | z6 |] %39
w: Soft- ly,|Now soft- ly lies,|sleep- ing.|_||
V:2
 x6 | x6 | x6 | G2 D4 | x6 | x6 | x6 | x6 | x6 | x6 | x6 | x6 | x6 | x6 | x6 | x6 | x6 | x6 || %18
[K:G] x6 | x6 | x6 | x6 | x6 | x6 | x6 | x6 | x6 | x6 | x6 | x6 | x6 | x6 | x6 | x6 | x6 | x6 | %36
 x6 | x6 | x6 |] %39
V:3
 (g2 B4) | (g2 d4) | (e2 B4) | (e2 d4) | (g2 d4) | (g2 d4) | (e2 A4) | (f2 B2) d2 | (e2 A4) | %9
 (d2 A4) | [GA][GA] z [GA] [GA][GA] | [GA=e][GAe] z [GAe] [GAe][GAe] | %12
 [A,=EA][A,EA] z [A,EA] [A,EA][A,EA] |!>(! [DAd][DAd] z [DAd] [DAd]!>)![DAd] | [=DE]6 | =E6 | %16
 [G,CG]4 (3G,EG | [GA]4 x2 ||[K:G] (g2 d4) | (g2 d4) | (g2 d4) | (g2 B4) | (g2 d4) | (g2 d4) | %24
 (g2 ^A4) | (f2 d2 [F^G]2) | (d2 A4) | (d2 A2) z2 | [GA][GA] z [GA] [GA][GA] | %29
 [GAe][GAe] z [GAe] [GAe][GAe] | [A,EA] [A,EA]2 [A,EA]2 [A,EA] | [DAd][DAd] z [DAd] [DAd][DAd] | %32
 [DE]6 | E4 z2 | [G,CG]4 z2 | [GA]4 z2 | (g2 d4) | (G2 D3) [A,C] | z2 !fermata![D,G,B,]4 |] %39
V:4
 (BA GB (3^FAD) | (BA GB (3^FAD) | (BA GB (3^FAD) | (BA GB (3^FAD) | (BA GB (3^FAD) | %5
 (BA GB (3DGB) | (BF EF (3CDE) | (BF DF (3dGD) | (^F=E DF (3^CEA,) | (^F=E DF) z2 | x6 | x6 | x6 | %13
 x6 | (^G,2 ^F,2 G,2) | [^G,D]2 [A,C]4 | x6 | ED CE (3A,EG ||[K:G] =BA G=B (3FAD | %19
 (BA GB (3(FAD)) | (BA GB (3(FAD)) | (BA GB (3(FAD)) | (BA GB (3FBD) | (BA GB (3DGB) | %24
 (BF EF (3^CDE) | BF FD DB, | FE DF (3^CEA, | FE DF x2 | x6 | x6 | x6 | x6 | (^G,2 ^F,2 G,2) | %33
 [^G,D]2 [A,C]2 x2 | x6 | _ED CE x2 | BA GB (3FAD | B,A, G,B, F,2 | x6 |] %39
V:5
 x6 | x6 | x6 | x6 | x6 | x6 | x6 | x6 | x6 | x6 | x6 | x6 | x6 | x6 | x6 | x6 | x6 | x6 || %18
[K:G] x6 | x6 | x6 | x6 | x6 | x6 | x6 | x6 | x6 | x6 | x6 | x6 | x6 | x6 | x6 | x6 | x6 | x6 | %36
 x2 x (!>!B2 A) | x6 | x6 |] %39
V:6
 (3((G,,D,A,) B,D, C2) | (3((G,,D,A,) B,D, C2) | (3((G,,D,A,) B,D, C2) | (3(G,,D,A, B,D, C2) | %4
 (3(G,,D,A, B,D, C2) | (3(G,,D,A, B,D, B,)=E, |!p! (3(F,,D,F, E,!<(!F,,!<)! F,2) | %7
 (3(B,,,F,,D, F,B,, =E,B,,) |"^dim." (3(A,,,"^poco rit."A,,=E, ^F,A,, G,2) | %9
"^a tempo" (3((D,,A,,=E,) (3^F,E,D, (3F,A,D) |!p! [C=E][CE] z!<(! [CE] [CE]!<)![CE] | %11
 [A,C][A,C] z [A,C] [A,C][A,C] |"^cresc." [C,^F,][C,F,] [C,F,][C,F,] [C,F,][C,F,] | %13
!>(! [=B,,=F,A,][B,,F,A,] z [B,,F,A,] [B,,F,A,]!>)![B,,F,A,] |!p! (=B,,2 A,,2 B,,2) | (=B,,2 C,4) | %16
 (3(E,,G,,C, (3E,D,C, z2) |"^rit." (3(C,,G,,D, E,C,!pp! A,2) || %18
[K:G] (3(G,,,"^a tempo"D,A, B,D, C2) | (3((G,,,D,A,) B,D, C2) | (3((G,,,D,A,) B,D, C2) | %21
 (3((G,,,D,A,) B,D, C2) | (3((G,,,D,A,) B,D, C2) | (3(G,,,D,A, B,D,)"^poco cresc." B,E, | %24
 (3((G,,,F,,D,) ^C,F,, F,2) | (3(B,,,F,,^C, (3D,C,B,,) ^G,2 | (3((A,,,A,,E, (3F,E,D,) =G,2) | %27
 (3((D,,A,,E,) (3F,E,D, (3F,A,D) | D,[CE] z [CE] [CE][CE] | [A,C][A,C] z [A,C] [A,C][A,C] | %30
 [C,F,] [C,F,]2 [C,F,]2 [C,F,] | [B,,=F,A,][B,,F,A,] z [B,,F,A,] [B,,F,A,][B,,F,A,] | %32
 (=B,,2 A,,2 B,,2) | (B,,2 C,2) z2 | (3((E,,G,,C,)"^rit." (3(_E,D,C,) (3G,_EG) | %35
"^colla voce" (3(C,,G,,D, _E,C, A,2 |!pp! (3G,,,D,A, B,D, A,2) | (3(G,,,D,,A,, B,,D,, D,2) | %38
 z2 !fermata![G,,,G,,]4 |] %39
V:7
 G,,2 x D,3 | G,,2 x D,3 | G,,2 x D,3 | G,,2 x D,3 | G,,2 x D,3 | G,,2 x D,2 x | F,,2 x F,,3 | %7
 B,,,2 x B,,3 | A,,,2 x A,,3 | D,,2 x4 | x6 | x6 | x6 | x6 | E,,6 | A,,6 | _E,,2 x2 x2 | %17
 C,,2 x x3 ||[K:G] G,,,2 x D,3 | G,,,2 x D,3 | G,,,2 x D,3 | G,,,2 x D,3 | G,,,2 x D,3 | %23
 G,,,2 x2 B,2 | G,,,2 x x3 | B,,,2 x x3 | A,,,2 x x A,,2 | D,,2 x x x2 | x6 | x6 | x6 | x6 | E,,6 | %33
 A,,4 x2 | x6 | C,,2 x2 x2 | G,,,2 z D,3 | G,,,2 x4 | x6 |] %39

